svgs/sharp-regular/transporter-6.svg

<svg xmlns="http://www.w3.org/2000/svg" viewBox="0 0 512 512"><!--! Font Awesome Pro 6.6.0 by @fontawesome - https://fontawesome.com License - https://fontawesome.com/license (Commercial License) Copyright 2024 Fonticons, Inc. --><path d="M48 0L64 32 96 48 64 64 48 96 32 64 0 48 32 32 48 0zM464 352l16 32 32 16-32 16-16 32-16-32-32-16 32-16 16-32zM96 464l24 0 272 0 24 0 0 48-24 0-272 0-24 0 0-48zM224 0l64 0 16 0 0 32-16 0-64 0-16 0 0-32 16 0zM112 256l288 0 16 0 0 32-16 0-288 0-16 0 0-32 16 0z"/></svg>

<svg xmlns="http://www.w3.org/2000/svg" viewBox="0 0 512 512"><!--! Font Awesome Pro 6.5.2 by @fontawesome - https://fontawesome.com License - https://fontawesome.com/license (Commercial License) Copyright 2024 Fonticons, Inc. --><path d="M48 0L64 32 96 48 64 64 48 96 32 64 0 48 32 32 48 0zM464 352l16 32 32 16-32 16-16 32-16-32-32-16 32-16 16-32zM96 464h24H392h24v48H392 120 96V464zM224 0h64 16V32H288 224 208V0h16zM112 256H400h16v32H400 112 96V256h16z"/></svg>
